X:1
T:Title
%%score [ ( 1 2 3 ) ( 4 5 ) ]
L:1/8
Q:1/4=100
M:2/2
K:F
V:1 treble nm="Sopran Alt"
V:2 treble 
V:3 treble 
V:4 bass nm="Tenor Bass"
V:5 bass 
V:1
 G8 | D4 _E4 | D4"^Psalm 45" G4 | (^F3 G A2) G2 | ^F6 G2 x2 | A4 c6 | %6
w: Mein|Herz dich|tet ein|Lied * * mit|Fleiß vom|Kö nig,|
"^Grif- fel füh""^er re gie" B4 x4 x2 | G4- x4 x2 | x4 x4 :|[M:2/2] B4 B2 F2 | G4 c4 | c2 ^G2 A4 | %12
w: der|gie||kein Men- schen-|kind man|schö- ner findt,|
 ^c4 d2 c2 | d4 =B4 | c2 =B2 c4 | d4 c2 B2 | c2 d2 B4 | A4 d2 _e4 | d2 B4 c2 | d4 B2 A4 | %20
w: hold- se- lig|sein die|Lip- pen dein,|g'seg- net in|al- len Din-|gen. Du Held,|gürt an die|Seit dein Schwert,|
 f2 c4 f2 | _e4 d4 | c4 B4 | d2 B4 c2 | A2 G4 F4 | A2 c4 d2 | B2 x16 || A4 G12 |] %28
w: rüst dich, dir|muß ge-|lin- gen|in dei- nem|Schmuck so wert,|in dei- nem|Schmuck|sowert. *|
V:2
 D8 | B,4 C4 | A,4 G,4 | (A,3 G, D2) D2 | D6 D2 x2 | F4 G4 x2 | F4 F4 x2 | D8 x2 | x2 x4 x2 :| %9
[M:2/2] D4 D2 D2 | E4 C4 | E2 E2 E4 | A4 G2 A2 | ^F4 G4 | E2 G2 E4 | F4 F2 D2 | F2 F2 D4 | %17
 D4 F2 G4 | F2 D4 C2 | F4 G2 C4 | D2 F4 A2 | G4 F4 | F4 F4 | F2 G4 G2 | F2 E4 F4 | F2 G4 A2 | %26
 G2 G2 G12 x2 || x2 x14 |] %28
V:3
 x4 x4 | x4 x4 | x4 x4 | x4 x4 | x4 x2 x4 | x4 x4 x2 | x4 x2 A4 | ^F2"^ret,\nret," [DG]8 | x8 :| %9
[M:2/2] x8 | x8 | x8 | x8 | x8 | x8 | x8 | x8 | x10 | x8 | x10 | x8 | x8 | x8 | x8 | x10 | x8 | %26
 x18 || x16 |] %28
V:4
 B,8 | G,4 G,4 | F,4 B,4 | (D3 C A,2) B,2 | A,6 B,2 x2 | C4 _E4 x2 | D4 C4 x2 | (B,4 A,4) x2 | %8
w: der|ed le|Schrei- ber,|Got * * tes|Geist, mein|Zung zum|Grif- *|fel~füh *|
 G,8 :|[M:2/2] G,4 G,2 A,2 | C4 E4 | A,2 =B,2 ^C4 | E4 D2 E2 | D4 D4 | C2 D2 C4 | F,4 A,2 G,2 | %16
w: ret,||||||||
 A,2 A,2 G,4 | ^F,4 B,2 G,4 | A,2 B,4 F2 | D4 E2 F4 | %20
w: ||||
"^Zeuch einher der Wahrheit zugut, durch Recht schütz den Elenden,\ndein rechte Hand, die Wunder tut, wird kund an allen Enden,\ndein scharfe Pfeil fällen in Eil, bring' n unter dich Völker, die sich\nergeben deiner Gnade. Dein Stuhl, o Gott, bleibt ewiglich,\ndeins Reichs Szepter gerade schirmt Wahrheit und Gericht." F,2 A,4 D2 | %21
w: |
 B,4 B,4 | A,4 B,4 | B,2 D4 G,2 | C2 C4 C4 | C2 (G,2 C2) A,2 | D2 D4 D12 || x16 |] %28
w: |||||||
V:5
 G,,8 | G,,4 C,4 | D,4 _E,4 | (D,3 E, ^F,2) G,2 | D,6 G,2 x2 | F,4 C,4 x2 | D,4 F,4 x2 | %7
 (B,,3 C, D,4) x2 | G,,8 :|[M:2/2] G,,4 G,,2 D,2 | C,4 A,,4 | A,,2 E,2 A,,4 | A,4 B,2 A,2 | %13
 D,4 G,4 | A,2 G,2 C,4 | B,,4 F,2 G,2 | F,2 D,2 G,4 | D,4 B,,2 _E,4 | ^F,2 G,4 A,2 | B,4 G,2 ^F,4 | %20
 B,,2 F,4 D,2 | _E,4 B,,4 | F,4 B,,4 | B,2 G,4 E,2 | F,2 C,4 F,4 | F,2 E,4 ^F,2 | G,2 D,4 G,,12 || %27
 x16 |] %28

